src/icons/volume-off.svg

<svg width="24" height="25" viewBox="0 0 24 25" fill="none" xmlns="http://www.w3.org/2000/svg">
<path d="M15 8.3252C15.7483 8.88643 16.3242 9.64633 16.6622 10.5185C17.0002 11.3907 17.0867 12.3403 16.912 13.2592M15.535 15.8612C15.3679 16.0283 15.1891 16.1834 15 16.3252M17.7 5.3252C19.3049 6.62224 20.4154 8.43141 20.8455 10.4496C21.2755 12.4679 20.9989 14.5726 20.062 16.4112M18.386 18.7102C18.168 18.9268 17.939 19.132 17.7 19.3252M9.069 5.3792L9.5 4.8252C9.5874 4.65543 9.73265 4.52252 9.90949 4.45049C10.0863 4.37846 10.2831 4.37206 10.4643 4.43244C10.6454 4.49282 10.799 4.61601 10.8972 4.77974C10.9955 4.94347 11.0319 5.13694 11 5.3252V7.3252M11 11.3252V19.3252C11.0319 19.5135 10.9955 19.7069 10.8972 19.8707C10.799 20.0344 10.6454 20.1576 10.4643 20.218C10.2831 20.2783 10.0863 20.2719 9.90949 20.1999C9.73265 20.1279 9.5874 19.995 9.5 19.8252L6 15.3252H4C3.73478 15.3252 3.48043 15.2198 3.29289 15.0323C3.10536 14.8448 3 14.5904 3 14.3252V10.3252C3 10.06 3.10536 9.80563 3.29289 9.61809C3.48043 9.43056 3.73478 9.3252 4 9.3252H6L7.294 7.6612M3 3.3252L21 21.3252" stroke="var(--color-magenta-900)" stroke-width="2" stroke-linecap="round" stroke-linejoin="round"/>
</svg>

<svg xmlns="http://www.w3.org/2000/svg" width="24" height="25" fill="none"><path stroke="var(--color-magenta-900)" stroke-linecap="round" stroke-linejoin="round" stroke-width="2" d="M15 8.325a5 5 0 0 1 1.912 4.934m-1.377 2.602a4.992 4.992 0 0 1-.535.464m2.7-11a9 9 0 0 1 2.362 11.086m-1.676 2.3a9.005 9.005 0 0 1-.686.614M9.069 5.38l.431-.554a.8.8 0 0 1 1.5.5v2m0 4v8a.8.8 0 0 1-1.5.5l-3.5-4.5H4a1 1 0 0 1-1-1v-4a1 1 0 0 1 1-1h2l1.294-1.664M3 3.325l18 18"/></svg>
